; G-Code generated by Simplify3D(R) Version 4.0.0
; Oct 26, 2018 at 3:28:14 AM
; Settings Summary
;   processName,Process1
;   applyToModels,TowerTop
;   profileName,PLA (modified)
;   profileVersion,2018-10-19 06:20:52
;   baseProfile,Skyprint
;   printMaterial,
;   printQuality,
;   printExtruders,
;   extruderName,Primary Extruder
;   extruderToolheadNumber,0
;   extruderDiameter,0.4
;   extruderAutoWidth,0
;   extruderWidth,0.48
;   extrusionMultiplier,0.99
;   extruderUseRetract,1
;   extruderRetractionDistance,7.6
;   extruderExtraRestartDistance,0
;   extruderRetractionZLift,0.2
;   extruderRetractionSpeed,5100
;   extruderUseCoasting,1
;   extruderCoastingDistance,0.1
;   extruderUseWipe,1
;   extruderWipeDistance,5
;   primaryExtruder,0
;   layerHeight,0.2
;   topSolidLayers,5
;   bottomSolidLayers,5
;   perimeterOutlines,2
;   printPerimetersInsideOut,1
;   startPointOption,2
;   startPointOriginX,150
;   startPointOriginY,0
;   sequentialIslands,0
;   spiralVaseMode,0
;   firstLayerHeightPercentage,80
;   firstLayerWidthPercentage,100
;   firstLayerUnderspeed,0.4
;   useRaft,0
;   raftExtruder,0
;   raftTopLayers,2
;   raftBaseLayers,1
;   raftOffset,2
;   raftSeparationDistance,0.4
;   raftTopInfill,90
;   aboveRaftSpeedMultiplier,0.5
;   useSkirt,1
;   skirtExtruder,0
;   skirtLayers,2
;   skirtOutlines,2
;   skirtOffset,2
;   usePrimePillar,0
;   primePillarExtruder,999
;   primePillarWidth,12
;   primePillarLocation,7
;   primePillarSpeedMultiplier,1
;   useOozeShield,0
;   oozeShieldExtruder,999
;   oozeShieldOffset,2
;   oozeShieldOutlines,1
;   oozeShieldSidewallShape,1
;   oozeShieldSidewallAngle,30
;   oozeShieldSpeedMultiplier,1
;   infillExtruder,0
;   internalInfillPattern,Rectilinear
;   externalInfillPattern,Rectilinear
;   infillPercentage,20
;   outlineOverlapPercentage,35
;   infillExtrusionWidthPercentage,105
;   minInfillLength,3
;   infillLayerInterval,1
;   internalInfillAngles,45,-45
;   overlapInternalInfillAngles,0
;   externalInfillAngles,45,-45
;   generateSupport,1
;   supportExtruder,0
;   supportInfillPercentage,40
;   supportExtraInflation,2
;   supportBaseLayers,0
;   denseSupportExtruder,0
;   denseSupportLayers,1
;   denseSupportInfillPercentage,80
;   supportLayerInterval,1
;   supportHorizontalPartOffset,1
;   supportUpperSeparationLayers,1
;   supportLowerSeparationLayers,1
;   supportType,1
;   supportGridSpacing,1
;   maxOverhangAngle,45
;   supportAngles,0
;   temperatureName,Primary Extruder,Cama
;   temperatureNumber,0,0
;   temperatureSetpointCount,2,3
;   temperatureSetpointLayers,1,2,1,2,3
;   temperatureSetpointTemperatures,215,205,70,65,55
;   temperatureStabilizeAtStartup,1,1
;   temperatureHeatedBed,0,1
;   temperatureRelayBetweenLayers,0,0
;   temperatureRelayBetweenLoops,0,0
;   fanLayers,1,3,6,9
;   fanSpeeds,0,50,75,100
;   blipFanToFullPower,0
;   adjustSpeedForCooling,1
;   minSpeedLayerTime,5
;   minCoolingSpeedSlowdown,30
;   increaseFanForCooling,1
;   minFanLayerTime,4
;   maxCoolingFanSpeed,100
;   increaseFanForBridging,1
;   bridgingFanSpeed,100
;   use5D,1
;   relativeEdistances,0
;   allowEaxisZeroing,1
;   independentExtruderAxes,0
;   includeM10123,0
;   stickySupport,1
;   applyToolheadOffsets,0
;   gcodeXoffset,0
;   gcodeYoffset,0
;   gcodeZoffset,0
;   overrideMachineDefinition,0
;   machineTypeOverride,0
;   strokeXoverride,200
;   strokeYoverride,200
;   strokeZoverride,200
;   originOffsetXoverride,0
;   originOffsetYoverride,0
;   originOffsetZoverride,0
;   homeXdirOverride,-1
;   homeYdirOverride,-1
;   homeZdirOverride,-1
;   flipXoverride,1
;   flipYoverride,-1
;   flipZoverride,1
;   toolheadOffsets,0,0|0,0|0,0|0,0|0,0|0,0
;   overrideFirmwareConfiguration,0
;   firmwareTypeOverride,RepRap (Marlin/Repetier/Sprinter)
;   GPXconfigOverride,r2
;   baudRateOverride,115200
;   overridePrinterModels,0
;   printerModelsOverride
;   startingGcode,G92 E0 ; Reset extrusor,G1 E7 F1800 ; Retract 7mm,G28 ; home all axes
;   layerChangeGcode,
;   retractionGcode,
;   toolChangeGcode,
;   endingGcode,G92 E0 ; Reset extrusor,G1 E-8 F1800 ; Retract 8mm,G28 ; Home,M104 S0 ; turn off extruder,M140 S0 ; turn off bed,M84 ; disable motors,M106 S0 ; Apaga cooler
;   exportFileFormat,gcode
;   celebration,0
;   celebrationSong,Random Song
;   postProcessing,
;   defaultSpeed,6000
;   outlineUnderspeed,0.8
;   solidInfillUnderspeed,0.8
;   supportUnderspeed,0.8
;   rapidXYspeed,12000
;   rapidZspeed,12000
;   minBridgingArea,5
;   bridgingExtraInflation,0.2
;   bridgingExtrusionMultiplier,1
;   bridgingSpeedMultiplier,1.1
;   useFixedBridgingAngle,0
;   fixedBridgingAngle,0
;   applyBridgingToPerimeters,1
;   filamentDiameters,1.75|1.75|1.75|1.75|1.75|1.75
;   filamentPricesPerKg,595|46|46|46|46|46
;   filamentDensities,1.24|1.25|1.25|1.25|1.25|1.25
;   useMinPrintHeight,0
;   minPrintHeight,10
;   useMaxPrintHeight,0
;   maxPrintHeight,5
;   useDiaphragm,0
;   diaphragmLayerInterval,20
;   robustSlicing,1
;   mergeAllIntoSolid,0
;   onlyRetractWhenCrossingOutline,1
;   retractBetweenLayers,0
;   useRetractionMinTravel,1
;   retractionMinTravel,5
;   retractWhileWiping,1
;   onlyWipeOutlines,1
;   avoidCrossingOutline,1
;   maxMovementDetourFactor,10
;   toolChangeRetractionDistance,12
;   toolChangeExtraRestartDistance,-0.5
;   toolChangeRetractionSpeed,600
;   externalThinWallType,0
;   internalThinWallType,0
;   thinWallAllowedOverlapPercentage,10
;   singleExtrusionMinLength,2
;   singleExtrusionMinPrintingWidthPercentage,50
;   singleExtrusionMaxPrintingWidthPercentage,110
;   singleExtrusionEndpointExtension,0.2
;   horizontalSizeCompensation,0
G90
M82
M106 S0
M140 S70
M190 S70
M104 S215 T0
M109 S215 T0
G92 E0 ; Reset extrusor
G1 E7 F1800 ; Retract 7mm
G28 ; home all axes
G92 E0
G1 E-7.6000 F5100
G1 Z0.360 F12000
; process Process1
; layer 1, Z = 0.160
T0
; tool H0.200 W0.480
; skirt
G1 X15.684 Y3.978 F12000
G1 Z0.160 F12000
G1 E0.0000 F1530
G92 E0
G1 X29.690 Y-21.873 E1.1617 F2400
G1 X29.912 Y-22.053 E1.1730
G1 X31.775 Y-22.607 E1.2498
G1 X32.060 Y-22.577 E1.2612
G1 X48.716 Y-13.553 E2.0097
G1 X48.896 Y-13.331 E2.0210
G1 X49.450 Y-11.468 E2.0978
G1 X49.420 Y-11.183 E2.1091
G1 X25.840 Y32.340 E4.0650
G1 X25.710 Y32.477 E4.0725
G1 X24.635 Y33.137 E4.1223
G1 X24.453 Y33.191 E4.1298
G1 X-34.560 Y34.790 E6.4624
G1 X-34.744 Y34.746 E6.4699
G1 X-35.853 Y34.146 E6.5197
G1 X-35.990 Y34.016 E6.5272
G1 X-61.913 Y-8.154 E8.4831
G1 X-61.958 Y-8.437 E8.4945
G1 X-61.507 Y-10.328 E8.5713
G1 X-61.338 Y-10.560 E8.5826
G1 X-45.175 Y-20.485 E9.3320
G1 X-44.893 Y-20.530 E9.3433
G1 X-43.003 Y-20.078 E9.4201
G1 X-42.771 Y-19.910 E9.4314
G1 X-27.386 Y5.145 E10.5932
G1 X15.584 Y3.981 E12.2917
G1 X15.684 Y3.978 F2400
G1 X15.974 Y4.450 F12000
G92 E0
G1 X30.066 Y-21.560 E1.1689 F2400
G1 X30.140 Y-21.620 E1.1727
G1 X31.820 Y-22.120 E1.2419
G1 X31.915 Y-22.110 E1.2457
G1 X48.403 Y-13.177 E1.9867
G1 X48.463 Y-13.103 E1.9904
G1 X48.962 Y-11.423 E2.0597
G1 X48.952 Y-11.328 E2.0634
G1 X25.448 Y32.055 E4.0131
G1 X25.405 Y32.101 E4.0156
G1 X24.437 Y32.695 E4.0604
G1 X24.377 Y32.713 E4.0629
G1 X-34.510 Y34.309 E6.3906
G1 X-34.571 Y34.294 E6.3930
G1 X-35.569 Y33.754 E6.4379
G1 X-35.615 Y33.710 E6.4404
G1 X-61.454 Y-8.324 E8.3900
G1 X-61.469 Y-8.418 E8.3938
G1 X-61.062 Y-10.123 E8.4630
G1 X-61.006 Y-10.201 E8.4668
G1 X-45.006 Y-20.026 E9.2087
G1 X-44.911 Y-20.041 E9.2125
G1 X-43.207 Y-19.633 E9.2817
G1 X-43.130 Y-19.577 E9.2855
G1 X-27.650 Y5.632 E10.4544
G1 X15.874 Y4.453 E12.1748
G1 X15.974 Y4.450 F2400
; inner perimeter
G1 X17.763 Y7.363 F12000
G92 E0
G1 X31.908 Y-18.747 E1.1734 F2160
G1 X45.590 Y-11.335 E1.7882
G1 X23.314 Y29.781 E3.6359
G1 X-33.608 Y31.323 E5.8859
G1 X-58.096 Y-8.514 E7.7336
G1 X-44.817 Y-16.668 E8.3493
G1 X-29.278 Y8.638 E9.5227
G1 X17.663 Y7.366 E11.3781
G1 X17.763 Y7.363 F2160
; outer perimeter
G1 X17.473 Y6.891 F12000
G92 E0
G1 X31.715 Y-19.397 E1.1814 F1920
G1 X46.240 Y-11.528 E1.8341
G1 X23.604 Y30.253 E3.7118
G1 X-33.871 Y31.811 E5.9836
G1 X-58.757 Y-8.672 E7.8613
G1 X-44.659 Y-17.328 E8.5149
G1 X-29.014 Y8.150 E9.6963
G1 X17.373 Y6.894 E11.5298
G1 X17.473 Y6.891 F1920
G1 X21.732 Y-0.971 F6000
; inner perimeter
G1 X20.465 Y15.847 F12000
G92 E0
G1 X19.762 Y15.959 E0.0281 F2160
G1 X19.111 Y16.249 E0.0563
G1 X18.558 Y16.698 E0.0844
G1 X18.141 Y17.275 E0.1125
G1 X17.887 Y17.940 E0.1407
G1 X17.813 Y18.647 E0.1688
G1 X17.926 Y19.350 E0.1969
G1 X18.216 Y20.000 E0.2250
G1 X18.663 Y20.551 E0.2531
G1 X19.240 Y20.969 E0.2812
G1 X19.904 Y21.224 E0.3093
G1 X20.612 Y21.297 E0.3374
G1 X21.315 Y21.185 E0.3656
G1 X21.965 Y20.895 E0.3937
G1 X22.518 Y20.446 E0.4219
G1 X22.936 Y19.869 E0.4500
G1 X23.190 Y19.205 E0.4781
G1 X23.263 Y18.497 E0.5062
G1 X23.151 Y17.794 E0.5343
G1 X22.861 Y17.144 E0.5625
G1 X22.413 Y16.593 E0.5905
G1 X21.837 Y16.175 E0.6186
G1 X21.173 Y15.921 E0.6467
G1 X20.564 Y15.857 E0.6709
G1 X20.465 Y15.847 F2160
; outer perimeter
G1 X20.478 Y16.331 F12000
G92 E0
G1 X19.899 Y16.423 E0.0231 F1920
G1 X19.365 Y16.661 E0.0463
G1 X18.910 Y17.031 E0.0694
G1 X18.566 Y17.505 E0.0926
G1 X18.358 Y18.052 E0.1157
G1 X18.297 Y18.634 E0.1388
G1 X18.390 Y19.212 E0.1619
G1 X18.628 Y19.746 E0.1851
G1 X18.996 Y20.200 E0.2081
G1 X19.470 Y20.543 E0.2313
G1 X20.017 Y20.753 E0.2544
G1 X20.599 Y20.813 E0.2775
G1 X21.177 Y20.721 E0.3006
G1 X21.712 Y20.483 E0.3238
G1 X22.167 Y20.113 E0.3469
G1 X22.510 Y19.639 E0.3701
G1 X22.719 Y19.092 E0.3932
G1 X22.779 Y18.510 E0.4163
G1 X22.687 Y17.932 E0.4394
G1 X22.448 Y17.398 E0.4626
G1 X22.080 Y16.944 E0.4856
G1 X21.606 Y16.601 E0.5088
G1 X21.061 Y16.392 E0.5319
G1 X20.577 Y16.341 E0.5511
G1 X20.478 Y16.331 F1920
G1 X19.899 Y16.423 F6000
G1 X19.365 Y16.661 F6000
G1 X18.910 Y17.031 F6000
G1 X18.566 Y17.505 F6000
G1 X18.358 Y18.052 F6000
G1 X18.297 Y18.634 F6000
G1 X18.390 Y19.212 F6000
G1 X18.628 Y19.746 F6000
G1 X18.996 Y20.200 F6000
G1 X19.470 Y20.543 F6000
G1 X20.017 Y20.753 F6000
G1 X20.599 Y20.813 F6000
G1 X21.177 Y20.721 F6000
G1 X21.712 Y20.483 F6000
G1 X22.167 Y20.113 F6000
G1 X22.261 Y19.983 F6000
; inner perimeter
G1 X22.255 Y19.983 F12000
G1 X22.163 Y20.110 F12000
G1 X21.709 Y20.479 F12000
G1 X21.176 Y20.717 F12000
G1 X20.599 Y20.808 F12000
G1 X20.018 Y20.748 F12000
G1 X19.473 Y20.539 F12000
G1 X19.000 Y20.196 F12000
G1 X18.822 Y19.978 F12000
G1 X-28.718 Y19.905 F12000
G92 E0
G1 X-28.830 Y19.202 E0.0281 F2160
G1 X-29.120 Y18.553 E0.0562
G1 X-29.568 Y18.001 E0.0843
G1 X-30.144 Y17.583 E0.1124
G1 X-30.809 Y17.329 E0.1405
G1 X-31.516 Y17.255 E0.1687
G1 X-32.219 Y17.367 E0.1968
G1 X-32.869 Y17.657 E0.2249
G1 X-33.423 Y18.107 E0.2531
G1 X-33.840 Y18.683 E0.2812
G1 X-34.094 Y19.348 E0.3093
G1 X-34.168 Y20.056 E0.3374
G1 X-34.055 Y20.759 E0.3656
G1 X-33.765 Y21.408 E0.3937
G1 X-33.317 Y21.960 E0.4217
G1 X-32.741 Y22.377 E0.4499
G1 X-32.077 Y22.632 E0.4780
G1 X-31.369 Y22.706 E0.5061
G1 X-30.666 Y22.594 E0.5342
G1 X-30.017 Y22.304 E0.5623
G1 X-29.463 Y21.854 E0.5905
G1 X-29.045 Y21.278 E0.6186
G1 X-28.791 Y20.613 E0.6468
G1 X-28.728 Y20.005 E0.6709
G1 X-28.718 Y19.905 F2160
; outer perimeter
G1 X-29.202 Y19.918 F12000
G92 E0
G1 X-29.294 Y19.341 E0.0231 F1920
G1 X-29.533 Y18.806 E0.0462
G1 X-29.901 Y18.353 E0.0693
G1 X-30.375 Y18.009 E0.0925
G1 X-30.921 Y17.800 E0.1156
G1 X-31.503 Y17.739 E0.1387
G1 X-32.081 Y17.831 E0.1618
G1 X-32.616 Y18.070 E0.1850
G1 X-33.071 Y18.440 E0.2081
G1 X-33.414 Y18.914 E0.2313
G1 X-33.623 Y19.460 E0.2544
G1 X-33.684 Y20.042 E0.2775
G1 X-33.591 Y20.620 E0.3006
G1 X-33.352 Y21.155 E0.3238
G1 X-32.984 Y21.608 E0.3468
G1 X-32.511 Y21.952 E0.3700
G1 X-31.964 Y22.161 E0.3931
G1 X-31.382 Y22.222 E0.4162
G1 X-30.804 Y22.130 E0.4393
G1 X-30.270 Y21.892 E0.4624
G1 X-29.814 Y21.521 E0.4856
G1 X-29.471 Y21.047 E0.5088
G1 X-29.262 Y20.501 E0.5319
G1 X-29.212 Y20.018 E0.5511
G1 X-29.202 Y19.918 F1920
G1 X-29.294 Y19.341 F6000
G1 X-29.533 Y18.806 F6000
G1 X-29.901 Y18.353 F6000
G1 X-30.375 Y18.009 F6000
G1 X-30.921 Y17.800 F6000
G1 X-31.503 Y17.739 F6000
G1 X-32.081 Y17.831 F6000
G1 X-32.616 Y18.070 F6000
G1 X-33.071 Y18.440 F6000
G1 X-33.414 Y18.914 F6000
G1 X-33.623 Y19.460 F6000
G1 X-33.684 Y20.042 F6000
G1 X-33.591 Y20.620 F6000
G1 X-33.352 Y21.155 F6000
G1 X-32.984 Y21.608 F6000
G1 X-32.852 Y21.704 F6000
; solid layer
G1 X-31.508 Y23.005 F12000
G92 E0
G1 X-23.769 Y30.745 E0.4325 F1920
G1 X-23.108 Y30.727 E0.4586
G1 X-30.889 Y22.945 E0.8934
G1 X-30.576 Y22.895 E0.9060
G1 X-30.358 Y22.798 E0.9154
G1 X-22.447 Y30.709 E1.3575
G1 X-21.786 Y30.691 E1.3836
G1 X-29.888 Y22.588 E1.8364
G1 X-29.852 Y22.572 E1.8379
G1 X-29.506 Y22.292 E1.8555
G1 X-21.125 Y30.673 E2.3239
G1 X-20.464 Y30.655 E2.3500
G1 X-29.156 Y21.963 E2.8357
G1 X-28.871 Y21.569 E2.8549
G1 X-19.803 Y30.637 E3.3616
G1 X-19.142 Y30.619 E3.3878
G1 X-28.648 Y21.113 E3.9189
G1 X-28.485 Y20.686 E3.9370
G1 X-28.477 Y20.606 E3.9402
G1 X-18.481 Y30.601 E4.4987
G1 X-17.821 Y30.583 E4.5248
G1 X-28.342 Y20.062 E5.1128
G1 X-28.413 Y19.991 F1920
G1 X-34.115 Y29.902 F12000
G92 E0
G1 X-33.022 Y30.995 E0.0611 F1920
G1 X-32.361 Y30.977 E0.0872
G1 X-35.198 Y28.140 E0.2458
G1 X-36.281 Y26.378 E0.3275
G1 X-31.700 Y30.959 E0.5835
G1 X-31.039 Y30.941 E0.6097
G1 X-37.364 Y24.616 E0.9631
G1 X-38.447 Y22.854 E1.0449
G1 X-30.378 Y30.924 E1.4958
G1 X-29.717 Y30.906 E1.5219
G1 X-39.531 Y21.092 E2.0703
G1 X-40.614 Y19.330 E2.1520
G1 X-29.056 Y30.888 E2.7979
G1 X-28.395 Y30.870 E2.8240
G1 X-41.697 Y17.568 E3.5673
G1 X-42.780 Y15.806 E3.6490
G1 X-27.734 Y30.852 E4.4897
G1 X-27.073 Y30.834 E4.5159
G1 X-43.863 Y14.045 E5.4540
G1 X-44.946 Y12.283 E5.5358
G1 X-26.412 Y30.816 E6.5714
G1 X-25.751 Y30.798 E6.5975
G1 X-46.029 Y10.521 E7.7306
G1 X-47.112 Y8.759 E7.8124
G1 X-25.091 Y30.780 E9.0429
G1 X-24.430 Y30.762 E9.0690
G1 X-32.319 Y22.873 E9.5099
G1 X-32.891 Y22.654 E9.5341
G1 X-33.534 Y22.188 E9.5655
G1 X-34.033 Y21.573 E9.5968
G1 X-34.357 Y20.848 E9.6281
G1 X-34.359 Y20.833 E9.6288
G1 X-48.195 Y6.997 E10.4019
G1 X-49.278 Y5.235 E10.4836
G1 X-34.479 Y20.034 E11.3106
G1 X-34.415 Y19.419 E11.3350
G1 X-50.361 Y3.473 E12.2261
G1 X-51.444 Y1.711 E12.3078
G1 X-34.257 Y18.899 E13.2682
G1 X-34.117 Y18.533 E13.2837
G1 X-34.044 Y18.433 E13.2886
G1 X-52.527 Y-0.051 E14.3215
G1 X-53.610 Y-1.812 E14.4032
G1 X-33.759 Y18.039 E15.5125
G1 X-33.651 Y17.891 E15.5197
G1 X-33.418 Y17.701 E15.5316
G1 X-54.694 Y-3.574 E16.7205
G1 X-55.777 Y-5.336 E16.8022
G1 X-33.044 Y17.397 E18.0725
G1 X-33.034 Y17.389 E18.0730
G1 X-32.577 Y17.185 E18.0928
G1 X-56.860 Y-7.098 E19.4497
G1 X-57.667 Y-8.411 E19.5106
G1 X-57.560 Y-8.477 E19.5156
G1 X-32.057 Y17.025 E20.9407
G1 X-31.525 Y16.941 E20.9620
G1 X-31.456 Y16.948 E20.9647
G1 X-57.139 Y-8.735 E22.3999
G1 X-56.719 Y-8.994 E22.4194
G1 X-30.681 Y17.044 E23.8743
G1 X-29.994 Y17.307 E23.9034
G1 X-29.351 Y17.773 E23.9348
G1 X-28.852 Y18.388 E23.9661
G1 X-28.528 Y19.113 E23.9975
G1 X-28.512 Y19.213 E24.0015
G1 X-17.160 Y30.565 E24.6359
G1 X-16.499 Y30.548 E24.6620
G1 X-56.298 Y-9.252 E26.8860
G1 X-55.877 Y-9.510 E26.9055
G1 X-15.838 Y30.530 E29.1429
G1 X-15.177 Y30.512 E29.1690
G1 X-55.457 Y-9.768 E31.4198
G1 X-55.036 Y-10.027 E31.4393
G1 X-14.516 Y30.494 E33.7036
G1 X-13.855 Y30.476 E33.7297
G1 X-54.616 Y-10.285 E36.0075
G1 X-54.195 Y-10.543 E36.0270
G1 X-13.194 Y30.458 E38.3181
G1 X-12.533 Y30.440 E38.3442
G1 X-53.775 Y-10.801 E40.6488
G1 X-53.354 Y-11.060 E40.6683
G1 X-11.872 Y30.422 E42.9863
G1 X-11.211 Y30.404 E43.0124
G1 X-52.933 Y-11.318 E45.3438
G1 X-52.513 Y-11.576 E45.3633
G1 X-10.550 Y30.386 E47.7082
G1 X-9.890 Y30.368 E47.7343
G1 X-52.092 Y-11.834 E50.0926
G1 X-51.672 Y-12.093 E50.1121
G1 X-9.229 Y30.351 E52.4838
G1 X-8.568 Y30.333 E52.5099
G1 X-51.180 Y-12.280 E54.8911
G1 X-51.251 Y-12.351 F1920
G1 X-44.943 Y-16.225 F12000
G92 E0
G1 X-44.860 Y-16.142 E0.0046 F1920
G1 X-43.780 Y-14.383 E0.0862
G1 X-45.363 Y-15.966 E0.1746
G1 X-45.784 Y-15.708 E0.1941
G1 X-42.700 Y-12.625 E0.3664
G1 X-41.620 Y-10.866 E0.4480
G1 X-46.204 Y-15.450 E0.7042
G1 X-46.625 Y-15.192 E0.7237
G1 X-40.540 Y-9.107 E1.0637
G1 X-39.460 Y-7.348 E1.1452
G1 X-47.045 Y-14.933 E1.5691
G1 X-47.466 Y-14.675 E1.5886
G1 X-38.380 Y-5.589 E2.0963
G1 X-37.300 Y-3.830 E2.1779
